outputs/icons/communication/subscribe_round.svg

<svg xmlns="http://www.w3.org/2000/svg" width="1200" height="1200" fill="none"><path fill="#000" d="M175 1100q-30 0-52.5-22.5T100 1025V475q0-30 22.5-52.5T175 400h850q30 0 52.5 22.5T1100 475v550q0 30-22.5 52.5T1025 1100zm0-75h850V475H175zm333.75-135.755c0 20.025 22.37 31.925 38.975 20.725L754.15 770.8c14.73-9.93 14.695-31.62-.065-41.5L547.66 591.06c-16.61-11.125-38.91.78-38.91 20.77zM198.75 325c-6.903 0-12.5-5.596-12.5-12.5v-50c0-6.904 5.597-12.5 12.5-12.5h802.5c6.905 0 12.5 5.596 12.5 12.5v50c0 6.904-5.595 12.5-12.5 12.5zM362.5 175c-6.904 0-12.5-5.596-12.5-12.5v-50c0-6.903 5.596-12.5 12.5-12.5h475c6.905 0 12.5 5.597 12.5 12.5v50c0 6.904-5.595 12.5-12.5 12.5z"/></svg>

<svg width="1200" height="1200" viewBox="0 0 1200 1200" fill="none" xmlns="http://www.w3.org/2000/svg"><path d="M175 1100C155 1100 137.5 1092.5 122.5 1077.5C107.5 1062.5 100 1045 100 1025V475C100 455 107.5 437.5 122.5 422.5C137.5 407.5 155 400 175 400H1025C1045 400 1062.5 407.5 1077.5 422.5C1092.5 437.5 1100 455 1100 475V1025C1100 1045 1092.5 1062.5 1077.5 1077.5C1062.5 1092.5 1045 1100 1025 1100H175ZM175 1025H1025V475H175V1025ZM508.75 889.245C508.75 909.27 531.12 921.17 547.725 909.97L754.15 770.8C768.88 760.87 768.845 739.18 754.085 729.3L547.66 591.06C531.05 579.935 508.75 591.84 508.75 611.83V889.245ZM198.75 325C191.847 325 186.25 319.404 186.25 312.5V262.5C186.25 255.596 191.847 250 198.75 250H1001.25C1008.155 250 1013.75 255.596 1013.75 262.5V312.5C1013.75 319.404 1008.155 325 1001.25 325H198.75ZM362.5 175C355.596 175 350 169.404 350 162.5V112.5C350 105.597 355.596 100 362.5 100H837.5C844.405 100 850 105.597 850 112.5V162.5C850 169.404 844.405 175 837.5 175H362.5Z" fill="#1D1E23"/></svg>
